packages/code-du-travail-frontend/public/static/assets/img/logo.svg

<svg width="657" height="265" viewBox="0 0 657 265" fill="none" xmlns="http://www.w3.org/2000/svg">
  <path d="M533.026 159.16H0.822266V79.8237H533.026V159.16Z" fill="#EE706B" />
  <path d="M532.919 79.8237H264.98V0.487716H532.919V79.8237Z" fill="#EE706B" />
  <path
    d="M210.09 186.329L209.935 240.688H198.319L187.634 224.349C187.479 224.09 186.318 222.413 184.15 219.315C183.582 218.489 182.473 216.812 180.821 214.282C180.097 213.146 179.246 211.881 178.265 210.489L177.258 208.938H177.103L177.181 210.334C177.233 210.696 177.271 211.341 177.297 212.27C177.323 213.198 177.335 213.894 177.335 214.36C177.439 216.114 177.517 218.206 177.567 220.631C177.619 222.233 177.646 224.89 177.646 228.607V240.531H165.023V186.407H176.639L187.943 203.52L190.731 207.701C190.835 207.855 191.893 209.405 193.906 212.346C194.165 212.76 194.578 213.392 195.145 214.244C195.713 215.096 196.151 215.727 196.462 216.141L197.546 217.689H197.623V216.141V212.037C197.623 209.56 197.597 207.546 197.546 205.997C197.494 204.449 197.469 202.022 197.469 198.718V186.329H210.09Z"
    fill="#EE706B" />
  <path
    d="M267.47 186.329V217.689C267.47 221.51 266.927 224.89 265.843 227.833C264.759 230.828 263.262 233.306 261.352 235.268C259.391 237.28 257.042 238.829 254.306 239.913C251.467 240.945 248.37 241.461 245.014 241.461C241.659 241.461 238.562 240.945 235.722 239.913C232.986 238.829 230.636 237.28 228.675 235.268C226.766 233.306 225.268 230.828 224.184 227.833C223.1 224.89 222.558 221.51 222.558 217.689V186.329H235.335V217.612C235.335 221.742 236.16 224.788 237.812 226.749C239.412 228.66 241.814 229.614 245.014 229.614C248.215 229.614 250.615 228.66 252.215 226.749C253.867 224.788 254.692 221.742 254.692 217.612V186.329H267.47Z"
    fill="#EE706B" />
  <path
    d="M330.656 186.329L330.501 240.688H318.112V226.362C318.112 220.735 318.24 216.166 318.499 212.656C318.551 211.625 318.603 210.746 318.653 210.024C318.705 209.301 318.731 208.76 318.731 208.398V207.856H318.653L318.035 208.938C317.519 209.868 317.079 210.695 316.717 211.418L315.324 214.205L314.317 216.218L308.432 227.214H302.005L296.12 216.218C295.915 215.702 295.604 215.03 295.191 214.205L293.797 211.418C293.436 210.695 292.997 209.868 292.481 208.938L291.861 207.856H291.707C291.655 207.856 291.655 208.244 291.707 209.017C291.759 209.79 291.836 210.98 291.939 212.578C292.197 216.089 292.327 220.658 292.327 226.285V240.609H280.015V186.485H291.939L301.231 202.9C302.883 205.894 303.967 208.037 304.484 209.328C304.948 210.566 305.207 211.186 305.257 211.186H305.335L305.489 210.719C305.541 210.617 305.748 210.128 306.109 209.25C306.523 208.321 306.936 207.442 307.348 206.617C307.968 205.326 308.665 204.036 309.439 202.745L318.731 186.329H330.656Z"
    fill="#EE706B" />
  <path
    d="M357.837 184.083L353.965 177.347L371.233 167.591L375.802 176.184L357.837 184.083ZM380.911 228.452V240.532H343.977V186.328H380.447V198.332H356.675V207.391H375.027V218.696H356.675V228.452H380.911Z"
    fill="#EE706B" />
  <path
    d="M406.234 211.417L413.978 211.572C415.01 211.572 415.939 211.365 416.765 210.953C417.487 210.591 418.107 210.075 418.623 209.404C419.139 208.733 419.501 208.036 419.707 207.313C419.966 206.436 420.094 205.635 420.094 204.912C420.094 204.189 419.966 203.389 419.707 202.512C419.501 201.789 419.139 201.092 418.623 200.421C418.107 199.749 417.487 199.233 416.765 198.872C415.939 198.46 415.01 198.253 413.978 198.253H406.234V211.417ZM421.179 240.609L411.887 223.032H406.157V240.687H393.458V186.561H412.661C415.707 186.561 418.546 187 421.179 187.877C423.709 188.704 425.877 189.943 427.683 191.595C429.49 193.247 430.883 195.183 431.865 197.403C432.845 199.569 433.335 202.099 433.335 204.991C433.335 208.656 432.535 211.779 430.935 214.36C429.335 216.992 427.063 219.032 424.122 220.477L435.426 240.609H421.179Z"
    fill="#EE706B" />
  <path d="M445.107 186.329H457.806V240.532H445.107V186.329Z" fill="#EE706B" />
  <path
    d="M502.796 224.968C505.016 222.232 506.125 218.36 506.125 213.354C506.125 208.295 505.016 204.423 502.796 201.738C500.524 199.003 497.478 197.635 493.658 197.635C489.786 197.635 486.766 199.003 484.598 201.738C482.43 204.474 481.346 208.346 481.346 213.354C481.346 218.31 482.43 222.182 484.598 224.968C486.766 227.755 489.786 229.15 493.658 229.15C497.478 229.15 500.524 227.755 502.796 224.968V224.968ZM487.309 240.764L487.232 241.075C484.496 240.507 481.862 239.396 479.333 237.746C477.01 236.248 474.972 234.26 473.216 231.783C471.512 229.356 470.196 226.646 469.266 223.651C468.338 220.658 467.873 217.328 467.873 213.663C467.873 209.327 468.518 205.455 469.809 202.048C471.1 198.59 472.881 195.622 475.152 193.143C477.424 190.614 480.133 188.703 483.282 187.414C486.534 186.071 489.941 185.4 493.504 185.4C497.169 185.4 500.576 186.071 503.725 187.414C506.874 188.756 509.584 190.64 511.856 193.066C514.126 195.492 515.933 198.46 517.276 201.97C518.566 205.378 519.212 209.25 519.212 213.586C519.212 217.199 518.746 220.555 517.817 223.651C516.888 226.748 515.572 229.459 513.869 231.783C512.165 234.054 510.1 235.99 507.674 237.59C505.248 239.139 502.614 240.223 499.776 240.842V250.676H487.309V240.764Z"
    fill="#EE706B" />
  <path
    d="M573.571 186.329V217.689C573.571 221.51 573.029 224.89 571.945 227.833C570.861 230.828 569.363 233.306 567.454 235.268C565.493 237.28 563.143 238.829 560.407 239.913C557.569 240.945 554.471 241.461 551.115 241.461C547.761 241.461 544.663 240.945 541.823 239.913C539.087 238.829 536.738 237.28 534.777 235.268C532.867 233.306 531.37 230.828 530.286 227.833C529.202 224.89 528.659 221.51 528.659 217.689V186.329H541.437V217.612C541.437 221.742 542.262 224.788 543.914 226.749C545.514 228.66 547.915 229.614 551.115 229.614C554.317 229.614 556.717 228.66 558.317 226.749C559.969 224.788 560.795 221.742 560.795 217.612V186.329H573.571Z"
    fill="#EE706B" />
  <path
    d="M623.052 228.453V240.531H586.116V186.329H622.587V198.331H598.815V207.391H617.167V218.695H598.815V228.453H623.052Z"
    fill="#EE706B" />
  <path
    d="M49.1251 135.641L48.8131 135.485C50.7371 135.485 52.5305 135.173 54.1931 134.549C55.8571 133.926 57.2611 132.99 58.4051 131.742C59.5491 130.494 60.4838 128.936 61.2118 127.064C61.8878 125.244 62.2251 123.112 62.2251 120.669C62.2251 118.121 61.8878 115.938 61.2118 114.118C60.4838 112.194 59.5491 110.584 58.4051 109.284C57.2611 107.985 55.8571 106.97 54.1931 106.242C52.6345 105.566 50.8665 105.229 48.8918 105.229H40.4691V135.641H49.1251ZM48.0331 92.9876H47.9558C52.0105 92.9876 55.6758 93.637 58.9505 94.9357C62.3291 96.2357 65.2145 98.1076 67.6065 100.55C70.1011 103.046 72.0251 105.957 73.3758 109.284C74.7798 112.716 75.4825 116.484 75.4825 120.59C75.4825 124.646 74.8065 128.389 73.4545 131.82C72.1545 135.146 70.2838 137.981 67.8398 140.32C65.3971 142.658 62.5118 144.452 59.1838 145.7C55.8571 146.948 52.1918 147.57 48.1891 147.57H27.3691V92.9876H48.0331Z"
    fill="white" />
  <path
    d="M132.252 93.1426V124.724C132.252 128.571 131.706 131.976 130.615 134.94C129.523 137.955 128.015 140.449 126.092 142.424C124.116 144.452 121.751 146.012 118.996 147.104C116.136 148.143 113.018 148.663 109.639 148.663C106.259 148.663 103.14 148.143 100.28 147.104C97.5257 146.012 95.1604 144.452 93.1844 142.424C91.2617 140.449 89.7537 137.955 88.6617 134.94C87.5711 131.976 87.0244 128.571 87.0244 124.724V93.1426H99.8911V124.645C99.8911 128.805 100.723 131.871 102.387 133.847C103.998 135.771 106.415 136.732 109.639 136.732C112.862 136.732 115.279 135.771 116.891 133.847C118.554 131.871 119.386 128.805 119.386 124.645V93.1426H132.252Z"
    fill="white" />
  <path d="M207.348 93.1427V105.229H192.142V147.728H179.353V105.229H164.304V93.1427H207.348Z"
    fill="white" />
  <path
    d="M230.585 118.407L238.384 118.563C239.423 118.563 240.359 118.355 241.191 117.941C241.919 117.575 242.543 117.057 243.061 116.379C243.581 115.705 243.945 115.002 244.153 114.275C244.413 113.391 244.544 112.585 244.544 111.857C244.544 111.13 244.413 110.323 244.153 109.439C243.945 108.713 243.581 108.01 243.061 107.334C242.543 106.658 241.919 106.138 241.191 105.775C240.359 105.359 239.423 105.151 238.384 105.151H230.585V118.407ZM245.636 147.805L236.277 130.105H230.508V147.885H217.719V93.3768H237.057C240.125 93.3768 242.984 93.8181 245.636 94.7021C248.183 95.5341 250.365 96.7808 252.185 98.4448C254.005 100.109 255.408 102.058 256.396 104.294C257.384 106.477 257.879 109.025 257.879 111.935C257.879 115.627 257.072 118.771 255.46 121.37C253.849 124.022 251.561 126.075 248.599 127.53L259.983 147.805H245.636Z"
    fill="white" />
  <path
    d="M298.507 127.687L294.764 115.834C294.348 114.483 294.061 113.47 293.905 112.792C293.697 111.908 293.464 111.026 293.204 110.142C293.151 109.934 293.06 109.608 292.931 109.167C292.8 108.726 292.709 108.426 292.659 108.27L292.424 107.568H292.347L292.191 108.27C292.137 108.426 292.047 108.726 291.917 109.167C291.787 109.608 291.696 109.934 291.644 110.142C291.592 110.35 291.476 110.752 291.293 111.35C291.112 111.947 290.968 112.43 290.864 112.792L289.929 115.834L286.108 127.687H298.507ZM302.249 139.15H282.521L279.792 147.727H266.223L285.796 93.1431H299.052L318.625 147.727H304.979L302.249 139.15Z"
    fill="white" />
  <path
    d="M375.239 93.1427L356.134 147.728H341.552L322.682 93.1427H336.562L345.919 123.243C346.803 126.049 347.531 128.675 348.102 131.119C348.57 133.145 348.83 134.159 348.882 134.159H348.96C349.012 134.159 349.272 133.145 349.74 131.119C350.311 128.675 351.04 126.049 351.923 123.243L361.28 93.1427H375.239Z"
    fill="white" />
  <path
    d="M411.89 127.687L408.148 115.834C407.732 114.483 407.445 113.47 407.289 112.792C407.081 111.908 406.848 111.026 406.588 110.142C406.534 109.934 406.444 109.608 406.314 109.167C406.184 108.726 406.093 108.426 406.042 108.27L405.808 107.568H405.73L405.574 108.27C405.521 108.426 405.43 108.726 405.301 109.167C405.17 109.608 405.08 109.934 405.028 110.142C404.976 110.35 404.86 110.752 404.677 111.35C404.496 111.947 404.352 112.43 404.248 112.792L403.313 115.834L399.492 127.687H411.89ZM415.633 139.15H395.905L393.176 147.727H379.606L399.18 93.1431H412.436L432.009 147.727H418.362L415.633 139.15Z"
    fill="white" />
  <path d="M441.757 93.1422H454.545V147.728H441.757V93.1422Z" fill="white" />
  <path d="M506.401 135.562V147.728H469.985V93.1422H482.773V135.562H506.401Z" fill="white" />
  <path
    d="M326.66 29.883L326.584 30.1123C325.463 28.3817 324.012 27.083 322.231 26.2163C320.398 25.351 318.564 24.919 316.731 24.919C312.862 24.919 309.858 26.2937 307.72 29.043C305.582 31.7923 304.512 35.5603 304.512 40.347C304.512 45.235 305.658 49.0017 307.95 51.6497C310.24 54.2977 313.219 55.6217 316.884 55.6217C319.175 55.6217 321.288 55.087 323.223 54.0177C325.107 52.9483 326.559 51.2923 327.576 49.0537L339.95 52.3363C338.066 57.1737 335.087 61.0177 331.014 63.8697C327.092 66.619 322.358 67.9937 316.808 67.9937C313.346 67.9937 309.986 67.3563 306.727 66.0843C303.622 64.811 300.948 62.927 298.708 60.4323C296.467 57.9883 294.711 55.0603 293.438 51.6497C292.164 48.2897 291.528 44.471 291.528 40.1937C291.528 35.9163 292.164 32.0977 293.438 28.7377C294.711 25.327 296.467 22.399 298.708 19.955C300.948 17.4603 303.622 15.5763 306.727 14.303C309.935 12.979 313.295 12.3177 316.808 12.3177C322.002 12.3177 326.482 13.5657 330.25 16.0603C334.068 18.6057 337.047 22.119 339.186 26.599L326.66 29.883Z"
    fill="white" />
  <path
    d="M364.543 51.6501C366.682 54.3995 369.661 55.7741 373.479 55.7741C377.298 55.7741 380.302 54.3995 382.491 51.6501C384.681 48.9515 385.775 45.1328 385.775 40.1941C385.775 35.2035 384.681 31.3848 382.491 28.7381C380.251 26.0395 377.246 24.6901 373.479 24.6901C369.661 24.6901 366.682 26.0395 364.543 28.7381C362.405 31.3848 361.335 35.2035 361.335 40.1941C361.335 45.0821 362.405 48.9008 364.543 51.6501ZM348.275 40.3475C348.275 36.0701 348.913 32.2515 350.185 28.8901C351.458 25.4795 353.214 22.5515 355.455 20.1075C357.695 17.6128 360.369 15.7288 363.474 14.4555C366.682 13.1328 370.042 12.4701 373.555 12.4701C377.17 12.4701 380.531 13.1328 383.637 14.4555C386.742 15.7795 389.415 17.6381 391.655 20.0315C393.895 22.4248 395.678 25.3515 397.002 28.8141C398.275 32.1755 398.911 35.9928 398.911 40.2701C398.911 44.5475 398.275 48.3661 397.002 51.7261C395.678 55.1875 393.895 58.1168 391.655 60.5088C389.415 62.9021 386.742 64.7608 383.637 66.0848C380.479 67.3568 377.119 67.9941 373.555 67.9941C370.093 67.9941 366.733 67.3568 363.474 66.0848C360.369 64.8115 357.695 62.9275 355.455 60.4328C353.214 57.9888 351.458 55.0608 350.185 51.6501C348.913 48.2901 348.275 44.4715 348.275 40.1941V40.3475Z"
    fill="white" />
  <path
    d="M431.906 55.0866L431.6 54.9346C433.484 54.9346 435.24 54.628 436.87 54.0173C438.499 53.4066 439.874 52.4893 440.994 51.268C442.114 50.0466 443.031 48.5186 443.743 46.6853C444.406 44.9026 444.736 42.816 444.736 40.4226C444.736 37.928 444.406 35.7893 443.743 34.0066C443.031 32.124 442.114 30.5453 440.994 29.272C439.874 28 438.499 27.0066 436.87 26.2933C435.343 25.632 433.611 25.3013 431.676 25.3013H423.428V55.0866H431.906ZM430.836 13.3106H430.76C434.731 13.3106 438.32 13.9466 441.528 15.22C444.838 16.492 447.664 18.3253 450.006 20.7186C452.45 23.1626 454.334 26.0133 455.658 29.272C457.032 32.6333 457.72 36.324 457.72 40.3466C457.72 44.3186 457.058 47.984 455.734 51.344C454.462 54.6026 452.628 57.3773 450.235 59.6693C447.842 61.96 445.016 63.7173 441.758 64.9386C438.499 66.16 434.91 66.772 430.99 66.772H410.598V13.3106H430.836Z"
    fill="white" />
  <path
    d="M506.372 55.0105V66.9238H469.941V13.4625H505.913V25.3012H482.467V34.2372H500.568V45.3878H482.467V55.0105H506.372Z"
    fill="white" />
  <path
    d="M138.666 257.954H649.999V162.222H138.666V257.954ZM656.666 264.621H131.999V155.556H656.666V264.621Z"
    fill="#EE706B" />
</svg>

<svg xmlns="http://www.w3.org/2000/svg" fill="none" viewBox="0 0 657 265"
  aria-label="Code du travail numérique" class="sc-1bce5a92-7 cUyIWP">
  <path fill="#fff" d="M135 160h520v100H135z"></path>
  <path fill="currentColor"
    d="M533.026 159.16H.822V79.824h532.204v79.336zm-.107-79.336H264.98V.488h267.939v79.336zM210.09 186.329l-.155 54.359h-11.616l-10.685-16.339c-.155-.259-1.316-1.936-3.484-5.034-.568-.826-1.677-2.503-3.329-5.033a99.201 99.201 0 0 0-2.556-3.793l-1.007-1.551h-.155l.078 1.396c.052.362.09 1.007.116 1.936.026.928.038 1.624.038 2.09.104 1.754.182 3.846.232 6.271.052 1.602.079 4.259.079 7.976v11.924h-12.623v-54.124h11.616l11.304 17.113 2.788 4.181c.104.154 1.162 1.704 3.175 4.645.259.414.672 1.046 1.239 1.898a44.728 44.728 0 0 0 1.317 1.897l1.084 1.548h.077v-5.652c0-2.477-.026-4.491-.077-6.04-.052-1.548-.077-3.975-.077-7.279v-12.389h12.621zm57.38 0v31.36c0 3.821-.543 7.201-1.627 10.144-1.084 2.995-2.581 5.473-4.491 7.435-1.961 2.012-4.31 3.561-7.046 4.645-2.839 1.032-5.936 1.548-9.292 1.548-3.355 0-6.452-.516-9.292-1.548-2.736-1.084-5.086-2.633-7.047-4.645-1.909-1.962-3.407-4.44-4.491-7.435-1.084-2.943-1.626-6.323-1.626-10.144v-31.36h12.777v31.283c0 4.13.825 7.176 2.477 9.137 1.6 1.911 4.002 2.865 7.202 2.865 3.201 0 5.601-.954 7.201-2.865 1.652-1.961 2.477-5.007 2.477-9.137v-31.283h12.778zm63.186 0-.155 54.359h-12.389v-14.326c0-5.627.128-10.196.387-13.706.052-1.031.104-1.91.154-2.632.052-.723.078-1.264.078-1.626v-.542h-.078l-.618 1.082c-.516.93-.956 1.757-1.318 2.48l-1.393 2.787-1.007 2.013-5.885 10.996h-6.427l-5.885-10.996a27.177 27.177 0 0 0-.929-2.013l-1.394-2.787a65.57 65.57 0 0 0-1.316-2.48l-.62-1.082h-.154c-.052 0-.052.388 0 1.161s.129 1.963.232 3.561c.258 3.511.388 8.08.388 13.707v14.324h-12.312v-54.124h11.924l9.292 16.415c1.652 2.994 2.736 5.137 3.253 6.428.464 1.238.723 1.858.773 1.858h.078l.154-.467c.052-.102.259-.591.62-1.469.414-.929.827-1.808 1.239-2.633a47.654 47.654 0 0 1 2.091-3.872l9.292-16.416h11.925zm27.181-2.246-3.872-6.736 17.268-9.756 4.569 8.593-17.965 7.899zm23.074 44.369v12.08h-36.934v-54.204h36.47v12.004h-23.772v9.059h18.352v11.305h-18.352v9.756h24.236zm25.323-17.035 7.744.155c1.032 0 1.961-.207 2.787-.619a5.35 5.35 0 0 0 1.858-1.549c.516-.671.878-1.368 1.084-2.091.259-.877.387-1.678.387-2.401 0-.723-.128-1.523-.387-2.4-.206-.723-.568-1.42-1.084-2.091a5.33 5.33 0 0 0-1.858-1.549c-.826-.412-1.755-.619-2.787-.619h-7.744v13.164zm14.945 29.192-9.292-17.577h-5.73v17.655h-12.699v-54.126h19.203c3.046 0 5.885.439 8.518 1.316 2.53.827 4.698 2.066 6.504 3.718a17.238 17.238 0 0 1 4.182 5.808c.98 2.166 1.47 4.696 1.47 7.588 0 3.665-.8 6.788-2.4 9.369-1.6 2.632-3.872 4.672-6.813 6.117l11.304 20.132h-14.247zm23.928-54.28h12.699v54.203h-12.699v-54.203zm57.689 38.639c2.22-2.736 3.329-6.608 3.329-11.614 0-5.059-1.109-8.931-3.329-11.616-2.272-2.735-5.318-4.103-9.138-4.103-3.872 0-6.892 1.368-9.06 4.103-2.168 2.736-3.252 6.608-3.252 11.616 0 4.956 1.084 8.828 3.252 11.614 2.168 2.787 5.188 4.182 9.06 4.182 3.82 0 6.866-1.395 9.138-4.182zm-15.487 15.796-.077.311c-2.736-.568-5.37-1.679-7.899-3.329-2.323-1.498-4.361-3.486-6.117-5.963-1.704-2.427-3.02-5.137-3.95-8.132-.928-2.993-1.393-6.323-1.393-9.988 0-4.336.645-8.208 1.936-11.615 1.291-3.458 3.072-6.426 5.343-8.905a21.995 21.995 0 0 1 8.13-5.729 26.519 26.519 0 0 1 10.222-2.014c3.665 0 7.072.671 10.221 2.014 3.149 1.342 5.859 3.226 8.131 5.652 2.27 2.426 4.077 5.394 5.42 8.904 1.29 3.408 1.936 7.28 1.936 11.616 0 3.613-.466 6.969-1.395 10.065-.929 3.097-2.245 5.808-3.948 8.132a24.624 24.624 0 0 1-6.195 5.807 24.106 24.106 0 0 1-7.898 3.252v9.834h-12.467v-9.912zm86.262-54.435v31.36c0 3.821-.542 7.201-1.626 10.144-1.084 2.995-2.582 5.473-4.491 7.435-1.961 2.012-4.311 3.561-7.047 4.645-2.838 1.032-5.936 1.548-9.292 1.548-3.354 0-6.452-.516-9.292-1.548-2.736-1.084-5.085-2.633-7.046-4.645-1.91-1.962-3.407-4.44-4.491-7.435-1.084-2.943-1.627-6.323-1.627-10.144v-31.36h12.778v31.283c0 4.13.825 7.176 2.477 9.137 1.6 1.911 4.001 2.865 7.201 2.865 3.202 0 5.602-.954 7.202-2.865 1.652-1.961 2.478-5.007 2.478-9.137v-31.283h12.776zm49.481 42.124v12.078h-36.936v-54.202h36.471v12.002h-23.772v9.06h18.352v11.304h-18.352v9.758h24.237z"></path>
  <path fill="#fff"
    d="m49.125 135.641-.312-.156c1.924 0 3.718-.312 5.38-.936 1.664-.623 3.068-1.559 4.212-2.807 1.144-1.248 2.079-2.806 2.807-4.678.676-1.82 1.013-3.952 1.013-6.395 0-2.548-.337-4.731-1.013-6.551-.728-1.924-1.663-3.534-2.807-4.834-1.144-1.299-2.548-2.314-4.212-3.042-1.558-.676-3.326-1.013-5.301-1.013h-8.423v30.412h8.656zm-1.092-42.653h-.077c4.054 0 7.72.649 10.994 1.948 3.38 1.3 6.264 3.172 8.656 5.614 2.495 2.496 4.42 5.407 5.77 8.734 1.404 3.432 2.106 7.2 2.106 11.306 0 4.056-.675 7.799-2.028 11.23-1.3 3.326-3.17 6.161-5.614 8.5-2.443 2.338-5.328 4.132-8.656 5.38-3.327 1.248-6.992 1.87-10.995 1.87H27.37V92.988h20.664zm84.219.155v31.581c0 3.847-.546 7.252-1.637 10.216-1.092 3.015-2.6 5.509-4.523 7.484-1.976 2.028-4.341 3.588-7.096 4.68-2.86 1.039-5.978 1.559-9.357 1.559-3.38 0-6.499-.52-9.359-1.559-2.754-1.092-5.12-2.652-7.096-4.68-1.922-1.975-3.43-4.469-4.522-7.484-1.09-2.964-1.638-6.369-1.638-10.216V93.143h12.867v31.502c0 4.16.832 7.226 2.496 9.202 1.611 1.924 4.028 2.885 7.252 2.885 3.223 0 5.64-.961 7.252-2.885 1.663-1.976 2.495-5.042 2.495-9.202V93.143h12.866zm75.096 0v12.086h-15.206v42.499h-12.789v-42.499h-15.049V93.143h43.044zm23.237 25.264 7.799.156c1.039 0 1.975-.208 2.807-.622a5.36 5.36 0 0 0 1.87-1.562c.52-.674.884-1.377 1.092-2.104.26-.884.391-1.69.391-2.418 0-.727-.131-1.534-.391-2.418-.208-.726-.572-1.429-1.092-2.105a5.34 5.34 0 0 0-1.87-1.559c-.832-.416-1.768-.624-2.807-.624h-7.799v13.256zm15.051 29.398-9.359-17.7h-5.769v17.78h-12.789V93.377h19.338c3.068 0 5.927.441 8.579 1.325 2.547.832 4.729 2.079 6.549 3.743a17.345 17.345 0 0 1 4.211 5.849c.988 2.183 1.483 4.731 1.483 7.641 0 3.692-.807 6.836-2.419 9.435-1.611 2.652-3.899 4.705-6.861 6.16l11.384 20.275h-14.347zm52.871-20.118-3.743-11.853c-.416-1.351-.703-2.364-.859-3.042a49.832 49.832 0 0 0-.701-2.65 31.897 31.897 0 0 0-.273-.975 53.278 53.278 0 0 0-.272-.897l-.235-.702h-.077l-.156.702c-.054.156-.144.456-.274.897-.13.441-.221.767-.273.975-.052.208-.168.61-.351 1.208-.181.597-.325 1.08-.429 1.442l-.935 3.042-3.821 11.853h12.399zm3.742 11.463h-19.728l-2.729 8.577h-13.569l19.573-54.584h13.256l19.573 54.584h-13.646l-2.73-8.577zm72.99-46.007-19.105 54.585h-14.582l-18.87-54.585h13.88l9.357 30.1a108.513 108.513 0 0 1 2.183 7.876c.468 2.026.728 3.04.78 3.04h.078c.052 0 .312-1.014.78-3.04.571-2.444 1.3-5.07 2.183-7.876l9.357-30.1h13.959zm36.651 34.544-3.742-11.853c-.416-1.351-.703-2.364-.859-3.042a49.832 49.832 0 0 0-.701-2.65 32.648 32.648 0 0 0-.274-.975 38.93 38.93 0 0 0-.272-.897l-.234-.702h-.078l-.156.702a26.94 26.94 0 0 0-.273.897c-.131.441-.221.767-.273.975-.052.208-.168.61-.351 1.208-.181.597-.325 1.08-.429 1.442l-.935 3.042-3.821 11.853h12.398zm3.743 11.463h-19.728l-2.729 8.577h-13.57l19.574-54.584h13.256l19.573 54.584h-13.647l-2.729-8.577zm26.124-46.008h12.788v54.586h-12.788V93.142zm64.644 42.42v12.166h-36.416V93.142h12.788v42.42h23.628zM326.66 29.883l-.076.23c-1.121-1.731-2.572-3.03-4.353-3.897-1.833-.865-3.667-1.297-5.5-1.297-3.869 0-6.873 1.375-9.011 4.124-2.138 2.75-3.208 6.517-3.208 11.304 0 4.888 1.146 8.655 3.438 11.303 2.29 2.648 5.269 3.972 8.934 3.972 2.291 0 4.404-.535 6.339-1.604 1.884-1.07 3.336-2.726 4.353-4.964l12.374 3.282c-1.884 4.838-4.863 8.682-8.936 11.534-3.922 2.749-8.656 4.124-14.206 4.124-3.462 0-6.822-.638-10.081-1.91a21.717 21.717 0 0 1-8.019-5.652c-2.241-2.444-3.997-5.372-5.27-8.782-1.274-3.36-1.91-7.179-1.91-11.456 0-4.278.636-8.096 1.91-11.456 1.273-3.411 3.029-6.339 5.27-8.783a21.717 21.717 0 0 1 8.019-5.652 26.167 26.167 0 0 1 10.081-1.985c5.194 0 9.674 1.248 13.442 3.742 3.818 2.546 6.797 6.059 8.936 10.539l-12.526 3.284zm37.883 21.767c2.139 2.75 5.118 4.124 8.936 4.124 3.819 0 6.823-1.374 9.012-4.124 2.19-2.698 3.284-6.517 3.284-11.456 0-4.99-1.094-8.81-3.284-11.456-2.24-2.698-5.245-4.048-9.012-4.048-3.818 0-6.797 1.35-8.936 4.048-2.138 2.647-3.208 6.465-3.208 11.456 0 4.888 1.07 8.707 3.208 11.456zm-16.268-11.303c0-4.277.638-8.096 1.91-11.457 1.273-3.41 3.029-6.338 5.27-8.782a21.717 21.717 0 0 1 8.019-5.652 26.192 26.192 0 0 1 10.081-1.986c3.615 0 6.976.663 10.082 1.986 3.105 1.324 5.778 3.182 8.018 5.576 2.24 2.393 4.023 5.32 5.347 8.782 1.273 3.361 1.909 7.179 1.909 11.456 0 4.277-.636 8.096-1.909 11.456-1.324 3.462-3.107 6.39-5.347 8.783s-4.913 4.252-8.018 5.576c-3.158 1.272-6.518 1.91-10.082 1.91-3.462 0-6.822-.638-10.081-1.91a21.717 21.717 0 0 1-8.019-5.652c-2.241-2.444-3.997-5.372-5.27-8.783-1.272-3.36-1.91-7.178-1.91-11.456v.153zm83.631 14.74-.306-.152c1.884 0 3.64-.307 5.27-.918 1.629-.61 3.004-1.528 4.124-2.749 1.12-1.221 2.037-2.75 2.749-4.583.663-1.782.993-3.869.993-6.262 0-2.495-.33-4.634-.993-6.416-.712-1.883-1.629-3.462-2.749-4.735-1.12-1.272-2.495-2.265-4.124-2.979-1.527-.661-3.259-.992-5.194-.992h-8.248v29.786h8.478zm-1.07-41.776h-.076c3.971 0 7.56.636 10.768 1.909 3.31 1.272 6.136 3.105 8.478 5.499 2.444 2.444 4.328 5.294 5.652 8.553 1.374 3.361 2.062 7.052 2.062 11.075 0 3.972-.662 7.637-1.986 10.997-1.272 3.259-3.106 6.033-5.499 8.325-2.393 2.291-5.219 4.048-8.477 5.27-3.259 1.221-6.848 1.833-10.768 1.833h-20.392V13.311h20.238zm75.536 41.699v11.914h-36.431V13.462h35.972v11.84h-23.446v8.935h18.101v11.15h-18.101v9.623h23.905z"></path>
  <path fill="currentColor"
    d="M138.666 257.954h511.333v-95.732H138.666v95.732zm518 6.667H131.999V155.556h524.667v109.065z"></path>
</svg>
